ix/grid-6_outline.svg

<svg viewBox="0 0 24 24" fill="none" xmlns="http://www.w3.org/2000/svg" height="1em" width="1em">
  <path d="M15 22.75H9c-5.43 0-7.75-2.32-7.75-7.75V9c0-5.43 2.32-7.75 7.75-7.75h6c5.43 0 7.75 2.32 7.75 7.75v6c0 5.43-2.32 7.75-7.75 7.75Zm-6-20C4.39 2.75 2.75 4.39 2.75 9v6c0 4.61 1.64 6.25 6.25 6.25h6c4.61 0 6.25-1.64 6.25-6.25V9c0-4.61-1.64-6.25-6.25-6.25H9Z" fill="#292D32"/>
  <path d="M10 22.75c-.41 0-.75-.34-.75-.75V2c0-.41.34-.75.75-.75s.75.34.75.75v20c0 .41-.34.75-.75.75Z" fill="#292D32"/>
  <path d="M22 9.25H10c-.41 0-.75-.34-.75-.75s.34-.75.75-.75h12c.41 0 .75.34.75.75s-.34.75-.75.75Zm0 7H10c-.41 0-.75-.34-.75-.75s.34-.75.75-.75h12c.41 0 .75.34.75.75s-.34.75-.75.75Z" fill="#292D32"/>
</svg>

<svg viewBox="0 0 24 24" fill="none" xmlns="http://www.w3.org/2000/svg" height="1em" width="1em">
  <path d="M15 22.75H9C3.57 22.75 1.25 20.43 1.25 15V9C1.25 3.57 3.57 1.25 9 1.25H15C20.43 1.25 22.75 3.57 22.75 9V15C22.75 20.43 20.43 22.75 15 22.75ZM9 2.75C4.39 2.75 2.75 4.39 2.75 9V15C2.75 19.61 4.39 21.25 9 21.25H15C19.61 21.25 21.25 19.61 21.25 15V9C21.25 4.39 19.61 2.75 15 2.75H9Z" fill="#292D32"/>
  <path d="M10 22.75C9.59 22.75 9.25 22.41 9.25 22V2C9.25 1.59 9.59 1.25 10 1.25C10.41 1.25 10.75 1.59 10.75 2V22C10.75 22.41 10.41 22.75 10 22.75Z" fill="#292D32"/>
  <path d="M22 9.25H10C9.59 9.25 9.25 8.91 9.25 8.5C9.25 8.09 9.59 7.75 10 7.75H22C22.41 7.75 22.75 8.09 22.75 8.5C22.75 8.91 22.41 9.25 22 9.25Z" fill="#292D32"/>
  <path d="M22 16.25H10C9.59 16.25 9.25 15.91 9.25 15.5C9.25 15.09 9.59 14.75 10 14.75H22C22.41 14.75 22.75 15.09 22.75 15.5C22.75 15.91 22.41 16.25 22 16.25Z" fill="#292D32"/>
</svg>
